X: 11398
T: East Clare, The
R: reel
M: 4/4
K: Gmixolydian
|:DEFA d2 cA|GEED EFGB|Adde d^cAB|cAGE EDCE|
DEFA d2 cA|GEED EFGB|Adde d^cAB|cAGE ED D2:|
|:aged cded|cBcd eg g2|aged cded|cAGE ED D2|
edeg age^c|d^cAB cAGE|FDDE FGAB|cAGE FD D2:|

